X: 1
T: C
M: 2/4
L: 1/8
R: polka
K: Cmaj
|:CC/C/ EE/E/ | G3 A/B/ | c/B/A/G/ F/E/D/C/ | B,4 |
B,B,/B,/ DD/D/ | F3A | G>F ED | EC-C2 :|
|:GE CD/E/ | FD B,C/D/ | EC A,C | B,/C/D/ C/B,/A,/G, |
GE CD/E/ | FD B,C/D/ | EC DB, | C4 :|
